X: 10
T:Electric Hornpipe
M:2/4
L:1/16
Z:abc by Bruce Osborne - bosborne@kos.net
K:A
E2|Acec dfaf|eac'a ecAE|FAdf ecAc|B^dgf e=dcB|!
Acec dfaf|eac'a ecAE|FAdf edBG|A2c2 A2:|!
K:E
BA|GBeB cedc|Bege BGEG|FABd fagf|dfec B2BA|!
GBeB cedc|Bege BGEG|AcBd cedf|e2g2 e2:|!
